X:1
T:In Bethlehem City
B:Broadwood, Lucy, 1893, English County Songs, Leadenhall Press, London
S:Mrs Wilson, near King's Langley, Herts
Z:Lucy Broadwood
F:http://www.folkinfo.org/songs
M:3/4     %Meter
L:1/8     %
K:F
F2 |FA cd cA |A2 A2 AG |FG A2 G2 | F2 z2
w:In Beth-*le-*hem_ ci-ty, in Ju-dae-*a it was.
F2 |FA cd cB |A2 A2 AG |FG A2 G2 | F2 z2
w:That Jo-*seph_ and_ Ma-ry to-*geth-*er did pass;
A2 |G2 GA B2 |AG F2 FG |A=B c2 B2 |c2 z2
w:All for to_ be tax-*ed when_ thi-*ther they came.
A2 |Bc d2 B2 |c2 c2 AG |FG A2 G2 | F2 z2
w:For Cae_ sar Au-gus-tus com_ mand_ ed the same.
 A2 |G2 GA B2 |AG F2 FG |A=B c2 B2 | c4
w:Then let us_ be mer-*ry, cast_ sor-*row a-way
 A2 |Bc d2 B2 |c2 c2 AG |FG A2 FE | F4 z2 |]
w:Our Sa-*viour Christ Je-sus was_ born_ on this_ day
V:2     %
M:3/4     %Meter
L:1/8     %
K:F
z2 |z6 |z6 |z6 |z6 |z6 |z6 |z6 |z6 |z6 |z6 |z6 |z6 |z6 |z6 |z6 |z4 F2 |C2 E2 DE |F2 F2 F2 |F2 FD G2 |GF E2 FE |D2 E2 D2 |C2 F2 E2 |C2 F2 G2 |F4 z2 |]
